X: 5826
T: Callaghan's
R: reel
M: 4/4
K: Dmajor
dB|:AF{G}FE EFDE|F2FE FAdB|AFFE EFDE|FB~B2 FEEF|
AFFE EFDE|F2FE FAdB|AFFE EFDE|(3FED EG FDD2:|
|:A3B AF~F2|ABde feeg|fded Bd~d2|ABde fddB|
A3B AF~F2|ABde feeg|fded Bd~d2|ABde fd~d2:|

